!!!OTL: TREU GELIEBT UND STILL GESCHWIEGEN
!!!ARE: Europa, Mitteleuropa, Deutschland
!!!SCT: F0920
!!!YEM: Copyright 1995, estate of Helmut Schaffrath.
**kern
*ICvox
*Ivox
*M4/4
*k[f#c#g#]
*A:
=1
{4.e
8a
4cc#
4cc#
=2
4.b
8g#
4a
4e}
=3
{4.e
8a
4cc#
4cc#
=4
12b
12a#
12b
12dd
12cc#
12b
2a}
=5
{4.cc#
8cc#
4.b
8b
=6
12a
12g#
12a
12cc#
12b
12a
4a
4g#}
=7
{8e
8b
8a
8g#
8f#
16b
16cc#
16b
16a
16g#
16f#
=8
4.e
8f#
4e
4r}
=9
{4.e
8f#
4g#
4a
=10
4.b
8cc#
4a
4e}
=11
{4.e
8f#
4g#
4a
=12
12b
12a#
12b
12dd
12cc#
12b
2b}
=13
{4.cc#
8a
4a
4dd
=14
4cc#
8b
8a
4ee
4dd}
=15
{4.b
8ccn
12cc#
12b
12a
12a
12g#
12f#
=16
4.e
8d
2c#}
=17
{8b
8cc#
8dd
8dd#
12ee
12cc#
12a
12f#
12dd
12b
=18
4.a
8b
4a
4r}
==
!!!AGN: Liebes - Lied
!!!ONB: ESAC (Essen Associative Code) Database: FINK
!!!AMT: simple quadruple
!!!AIN: vox
!!!EED: Helmut Schaffrath
!!!EEV: 1.0
*-
